X: 34935
T: Rocking The Cradle
R: jig
M: 6/8
K: Amixolydian
|:cee dee|cee dcB|cee dec|(3AAA A cBA|
cee dee|cee dcB|(3AAA c BcB|A (3cBA AAA:|
|:acc ecc|acc dcB|acc ecc|(3AAA A cBA|
acc ecc|acc dcB|(3AAA c BcB|A (3cBA AAA:|

